contributed-vectors/nebulo.svg

<svg width="192" height="192" viewBox="0 0 192 192" fill="none" xmlns="http://www.w3.org/2000/svg">
<g clip-path="url(#clip0)">
<path d="M168.417 116.819C168.417 128.184 159.164 137.437 147.799 137.437H51.3477H50.8448C50.7442 137.437 50.6437 137.437 50.5431 137.437C50.4425 137.437 50.3419 137.437 50.1408 137.437H49.6379H49.4368C42.296 137.135 35.5575 134.219 30.6293 128.989C25.6006 123.759 22.7845 116.92 22.7845 109.678C22.7845 97.006 31.4339 85.9428 43.6034 82.825H71.2615C83.2299 82.825 92.885 73.0693 92.885 61.2014C92.885 58.6871 92.4827 56.1727 91.5776 53.8595C92.5833 53.7589 93.6896 53.7589 94.6954 53.7589C112.899 53.7589 128.79 66.733 132.411 84.5348L134.825 96.6037L147.095 96.302H147.598H147.799C159.164 96.302 168.417 105.555 168.417 116.819Z" fill="#73ADA4"/>
<path d="M147.799 81.6181C147.497 81.6181 147.095 81.6181 146.693 81.6181C141.764 57.3796 120.342 39.075 94.5948 39.075C80.2126 39.075 67.1379 44.8078 57.4828 54.1612H71.0603C74.8822 54.1612 78.1006 57.279 78.1006 61.2014C78.1006 65.0233 74.9828 68.2417 71.0603 68.2417H41.7931C22.4828 72.2647 8 89.2618 8 109.779C8 132.811 26.3046 151.417 49.1351 152.222H49.2356C49.6379 152.222 50.0402 152.222 50.4425 152.222C50.8448 152.222 51.2471 152.222 51.6494 152.222H147.799C167.31 152.222 183 136.431 183 117.02C183 97.6095 167.31 81.6181 147.799 81.6181ZM147.799 137.437H51.3477H50.8448C50.7443 137.437 50.6437 137.437 50.5431 137.437C50.4425 137.437 50.342 137.437 50.1408 137.437H49.6379H49.4368C42.296 137.135 35.5575 134.219 30.6293 128.989C25.6006 123.759 22.7845 116.92 22.7845 109.678C22.7845 97.006 31.4339 85.9428 43.6034 82.825H71.2615C83.2299 82.825 92.8851 73.0693 92.8851 61.2014C92.8851 58.6871 92.4827 56.1727 91.5776 53.8595C92.5833 53.7589 93.6897 53.7589 94.6954 53.7589C112.899 53.7589 128.79 66.733 132.411 84.5348L134.825 96.6037L147.095 96.302H147.598H147.799C159.164 96.302 168.316 105.555 168.316 116.92C168.417 128.184 159.164 137.437 147.799 137.437Z" fill="#ECECEC"/>
<path d="M97.6121 103.342C94.5948 94.894 85.8448 89.1612 75.9885 91.1727C68.7471 92.5807 62.9138 98.4141 61.4052 105.555C58.7902 117.724 68.0431 128.486 79.8103 128.486C88.0575 128.486 94.9971 123.256 97.5115 115.914H111.19V122.15C111.19 125.569 114.006 128.385 117.425 128.385C120.845 128.385 123.661 125.569 123.661 122.15V115.914C127.08 115.914 129.897 113.098 129.897 109.678C129.897 106.259 127.08 103.443 123.661 103.443H97.6121V103.342ZM79.8103 115.914C76.3908 115.914 73.5747 113.098 73.5747 109.678C73.5747 106.259 76.3908 103.443 79.8103 103.443C83.2299 103.443 86.046 106.259 86.046 109.678C86.1466 113.098 83.3305 115.914 79.8103 115.914Z" fill="#9BD7CF"/>
</g>
<defs>
<clipPath id="clip0">
<rect width="192" height="192" fill="white"/>
</clipPath>
</defs>
</svg>

<svg xmlns="http://www.w3.org/2000/svg" width="192" height="192" fill="none"><g clip-path="url(#a)"><path fill="#73ADA4" d="M168.417 116.819c0 11.365-9.253 20.618-20.618 20.618H49.437c-7.141-.302-13.88-3.218-18.808-8.448-5.028-5.23-7.845-12.069-7.845-19.311 0-12.672 8.65-23.735 20.82-26.853H71.26c11.969 0 21.624-9.756 21.624-21.624 0-2.514-.402-5.028-1.307-7.342 1.005-.1 2.112-.1 3.117-.1 18.204 0 34.095 12.974 37.716 30.776l2.414 12.069 12.27-.302h.704c11.365 0 20.618 9.253 20.618 20.517Z"/><path fill="#ECECEC" d="M147.799 81.618h-1.106c-4.929-24.238-26.351-42.543-52.098-42.543-14.382 0-27.457 5.733-37.112 15.086H71.06c3.822 0 7.04 3.118 7.04 7.04 0 3.822-3.117 7.04-7.04 7.04H41.793C22.483 72.266 8 89.262 8 109.78c0 23.032 18.305 41.638 41.135 42.443H147.8c19.511 0 35.201-15.791 35.201-35.202 0-19.41-15.69-35.402-35.201-35.402Zm0 55.819H49.437c-7.141-.302-13.88-3.218-18.808-8.448-5.028-5.23-7.845-12.069-7.845-19.311 0-12.672 8.65-23.735 20.82-26.853H71.26c11.969 0 21.624-9.756 21.624-21.624 0-2.514-.402-5.028-1.307-7.342 1.005-.1 2.112-.1 3.117-.1 18.204 0 34.095 12.974 37.716 30.776l2.414 12.069 12.27-.302h.704c11.365 0 20.517 9.253 20.517 20.618.101 11.264-9.152 20.517-20.517 20.517Z"/><path fill="#9BD7CF" d="M97.612 103.342c-3.017-8.448-11.767-14.18-21.623-12.17-7.242 1.409-13.075 7.242-14.584 14.383-2.615 12.169 6.638 22.931 18.405 22.931 8.248 0 15.187-5.23 17.701-12.572h13.679v6.236c0 3.419 2.816 6.235 6.235 6.235 3.42 0 6.236-2.816 6.236-6.235v-6.236c3.419 0 6.236-2.816 6.236-6.236 0-3.419-2.817-6.235-6.236-6.235H97.612v-.101ZM79.81 115.914c-3.42 0-6.235-2.816-6.235-6.236 0-3.419 2.816-6.235 6.235-6.235 3.42 0 6.236 2.816 6.236 6.235.1 3.42-2.716 6.236-6.236 6.236Z"/></g><defs><clipPath id="a"><path fill="#fff" d="M0 0h192v192H0z"/></clipPath></defs></svg>
